static/img/kroki/8fb5b097487b3667ff1e79158c0a2a22.svg

<?xml version="1.0" encoding="us-ascii" standalone="no"?><svg xmlns="http://www.w3.org/2000/svg" xmlns:xlink="http://www.w3.org/1999/xlink" contentStyleType="text/css" height="1085px" preserveAspectRatio="none" style="width:461px;height:1085px;" version="1.1" viewBox="0 0 461 1085" width="461px" zoomAndPan="magnify"><defs/><g><!--class azure_cosmos_db_restorable_account--><g id="elem_azure_cosmos_db_restorable_account"><rect codeLine="23" fill="#3D176E" height="205.5703" id="azure_cosmos_db_restorable_account" rx="2.5" ry="2.5" style="stroke:#000D19;stroke-width:0.5;" width="447" x="7" y="660.14"/><ellipse cx="65.25" cy="680.0345" fill="#ADD1B2" rx="11" ry="11" style="stroke:#181818;stroke-width:1.0;"/><path d="M68.2188,685.6752 Q67.6406,685.972 67,686.1127 Q66.3594,686.2689 65.6563,686.2689 Q63.1563,686.2689 61.8281,684.6283 Q60.5156,682.972 60.5156,679.847 Q60.5156,676.722 61.8281,675.0658 Q63.1563,673.4095 65.6563,673.4095 Q66.3594,673.4095 67,673.5658 Q67.6563,673.722 68.2188,674.0189 L68.2188,676.7377 Q67.5938,676.1595 67,675.8939 Q66.4063,675.6127 65.7813,675.6127 Q64.4375,675.6127 63.75,676.6908 Q63.0625,677.7533 63.0625,679.847 Q63.0625,681.9408 63.75,683.0189 Q64.4375,684.0814 65.7813,684.0814 Q66.4063,684.0814 67,683.8158 Q67.5938,683.5345 68.2188,682.9564 L68.2188,685.6752 Z " fill="#000000"/><text fill="#D9B8FF" font-family="Helvetica" font-size="17" lengthAdjust="spacing" textLength="312" x="90.75" y="685.9198">azure_cosmos_db_restorable_account</text><line style="stroke:#000D19;stroke-width:0.5;" x1="8" x2="453" y1="699.9291" y2="699.9291"/><text fill="#D9B8FF" font-family="sans-serif" font-size="14" font-weight="bold" lengthAdjust="spacing" textLength="113" x="18" y="721.9242">account_name</text><text fill="#D9B8FF" font-family="sans-serif" font-size="14" lengthAdjust="spacing" textLength="48" x="131" y="721.9242">: string</text><text fill="#D9B8FF" font-family="sans-serif" font-size="14" font-weight="bold" lengthAdjust="spacing" textLength="65" x="18" y="748.2211">api_type</text><text fill="#D9B8FF" font-family="sans-serif" font-size="14" lengthAdjust="spacing" textLength="48" x="83" y="748.2211">: string</text><text fill="#D9B8FF" font-family="sans-serif" font-size="14" font-weight="bold" lengthAdjust="spacing" textLength="106" x="18" y="774.5179">creation_time</text><text fill="#D9B8FF" font-family="sans-serif" font-size="14" lengthAdjust="spacing" textLength="70" x="124" y="774.5179">: datetime</text><text fill="#D9B8FF" font-family="sans-serif" font-size="14" font-weight="bold" lengthAdjust="spacing" textLength="105" x="18" y="800.8148">deletion_time</text><text fill="#D9B8FF" font-family="sans-serif" font-size="14" lengthAdjust="spacing" textLength="70" x="123" y="800.8148">: datetime</text><text fill="#D9B8FF" font-family="sans-serif" font-size="14" font-weight="bold" lengthAdjust="spacing" textLength="179" x="18" y="827.1117">oldest_restorable_time</text><text fill="#D9B8FF" font-family="sans-serif" font-size="14" lengthAdjust="spacing" textLength="70" x="197" y="827.1117">: datetime</text><text fill="#D9B8FF" font-family="sans-serif" font-size="14" font-weight="bold" lengthAdjust="spacing" textLength="160" x="18" y="853.4086">restorable_locations</text><text fill="#D9B8FF" font-family="sans-serif" font-size="14" lengthAdjust="spacing" textLength="265" x="178" y="853.4086">: azure_restorable_location_resource[]</text></g><!--class azure_restorable_location_resource--><g id="elem_azure_restorable_location_resource"><rect codeLine="31" fill="#3D176E" height="152.9766" id="azure_restorable_location_resource" rx="2.5" ry="2.5" style="stroke:#000D19;stroke-width:0.5;" width="378" x="41.5" y="925.71"/><ellipse cx="75.4" cy="945.6045" fill="#ADD1B2" rx="11" ry="11" style="stroke:#181818;stroke-width:1.0;"/><path d="M78.3688,951.2452 Q77.7906,951.542 77.15,951.6827 Q76.5094,951.8389 75.8063,951.8389 Q73.3063,951.8389 71.9781,950.1983 Q70.6656,948.542 70.6656,945.417 Q70.6656,942.292 71.9781,940.6358 Q73.3063,938.9795 75.8063,938.9795 Q76.5094,938.9795 77.15,939.1358 Q77.8063,939.292 78.3688,939.5889 L78.3688,942.3077 Q77.7438,941.7295 77.15,941.4639 Q76.5563,941.1827 75.9313,941.1827 Q74.5875,941.1827 73.9,942.2608 Q73.2125,943.3233 73.2125,945.417 Q73.2125,947.5108 73.9,948.5889 Q74.5875,949.6514 75.9313,949.6514 Q76.5563,949.6514 77.15,949.3858 Q77.7438,949.1045 78.3688,948.5264 L78.3688,951.2452 Z " fill="#000000"/><text fill="#D9B8FF" font-family="Helvetica" font-size="17" lengthAdjust="spacing" textLength="294" x="98.6" y="951.4898">azure_restorable_location_resource</text><line style="stroke:#000D19;stroke-width:0.5;" x1="42.5" x2="418.5" y1="965.4991" y2="965.4991"/><text fill="#D9B8FF" font-family="sans-serif" font-size="14" font-weight="bold" lengthAdjust="spacing" textLength="106" x="52.5" y="987.4942">creation_time</text><text fill="#D9B8FF" font-family="sans-serif" font-size="14" lengthAdjust="spacing" textLength="70" x="158.5" y="987.4942">: datetime</text><text fill="#D9B8FF" font-family="sans-serif" font-size="14" font-weight="bold" lengthAdjust="spacing" textLength="105" x="52.5" y="1013.7911">deletion_time</text><text fill="#D9B8FF" font-family="sans-serif" font-size="14" lengthAdjust="spacing" textLength="70" x="157.5" y="1013.7911">: datetime</text><text fill="#D9B8FF" font-family="sans-serif" font-size="14" font-weight="bold" lengthAdjust="spacing" textLength="112" x="52.5" y="1040.0879">location_name</text><text fill="#D9B8FF" font-family="sans-serif" font-size="14" lengthAdjust="spacing" textLength="48" x="164.5" y="1040.0879">: string</text><text fill="#D9B8FF" font-family="sans-serif" font-size="14" font-weight="bold" lengthAdjust="spacing" textLength="308" x="52.5" y="1066.3848">regional_database_account_instance_id</text><text fill="#D9B8FF" font-family="sans-serif" font-size="14" lengthAdjust="spacing" textLength="48" x="360.5" y="1066.3848">: string</text></g><!--class microsoft_resource--><g id="elem_microsoft_resource"><rect codeLine="37" fill="#3D176E" height="100.3828" id="microsoft_resource" rx="2.5" ry="2.5" style="stroke:#000D19;stroke-width:0.5;" width="214" x="123.5" y="438.76"/><ellipse cx="144.8" cy="458.6545" fill="#ADD1B2" rx="11" ry="11" style="stroke:#181818;stroke-width:1.0;"/><path d="M147.7688,464.2952 Q147.1906,464.592 146.55,464.7327 Q145.9094,464.8889 145.2063,464.8889 Q142.7063,464.8889 141.3781,463.2483 Q140.0656,461.592 140.0656,458.467 Q140.0656,455.342 141.3781,453.6858 Q142.7063,452.0295 145.2063,452.0295 Q145.9094,452.0295 146.55,452.1858 Q147.2063,452.342 147.7688,452.6389 L147.7688,455.3577 Q147.1438,454.7795 146.55,454.5139 Q145.9563,454.2327 145.3313,454.2327 Q143.9875,454.2327 143.3,455.3108 Q142.6125,456.3733 142.6125,458.467 Q142.6125,460.5608 143.3,461.6389 Q143.9875,462.7014 145.3313,462.7014 Q145.9563,462.7014 146.55,462.4358 Q147.1438,462.1545 147.7688,461.5764 L147.7688,464.2952 Z " fill="#000000"/><text fill="#D9B8FF" font-family="Helvetica" font-size="17" lengthAdjust="spacing" textLength="158" x="165.2" y="464.5398">microsoft_resource</text><line style="stroke:#000D19;stroke-width:0.5;" x1="124.5" x2="336.5" y1="478.5491" y2="478.5491"/><text fill="#D9B8FF" font-family="sans-serif" font-size="14" font-weight="bold" lengthAdjust="spacing" textLength="35" x="134.5" y="500.5442">etag</text><text fill="#D9B8FF" font-family="sans-serif" font-size="14" lengthAdjust="spacing" textLength="48" x="169.5" y="500.5442">: string</text><text fill="#D9B8FF" font-family="sans-serif" font-size="14" font-weight="bold" lengthAdjust="spacing" textLength="144" x="134.5" y="526.8411">provisioning_state</text><text fill="#D9B8FF" font-family="sans-serif" font-size="14" lengthAdjust="spacing" textLength="48" x="278.5" y="526.8411">: string</text></g><!--class resource--><g id="elem_resource"><rect codeLine="41" fill="#3D176E" height="310.7578" id="resource" rx="2.5" ry="2.5" style="stroke:#000D19;stroke-width:0.5;" width="227" x="117" y="7"/><ellipse cx="185.75" cy="26.8945" fill="#ADD1B2" rx="11" ry="11" style="stroke:#181818;stroke-width:1.0;"/><path d="M188.7188,32.5352 Q188.1406,32.832 187.5,32.9727 Q186.8594,33.1289 186.1563,33.1289 Q183.6563,33.1289 182.3281,31.4883 Q181.0156,29.832 181.0156,26.707 Q181.0156,23.582 182.3281,21.9258 Q183.6563,20.2695 186.1563,20.2695 Q186.8594,20.2695 187.5,20.4258 Q188.1563,20.582 188.7188,20.8789 L188.7188,23.5977 Q188.0938,23.0195 187.5,22.7539 Q186.9063,22.4727 186.2813,22.4727 Q184.9375,22.4727 184.25,23.5508 Q183.5625,24.6133 183.5625,26.707 Q183.5625,28.8008 184.25,29.8789 Q184.9375,30.9414 186.2813,30.9414 Q186.9063,30.9414 187.5,30.6758 Q188.0938,30.3945 188.7188,29.8164 L188.7188,32.5352 Z " fill="#000000"/><text fill="#D9B8FF" font-family="Helvetica" font-size="17" lengthAdjust="spacing" textLength="71" x="211.25" y="32.7798">resource</text><line style="stroke:#000D19;stroke-width:0.5;" x1="118" x2="343" y1="46.7891" y2="46.7891"/><text fill="#D9B8FF" font-family="sans-serif" font-size="14" font-weight="bold" lengthAdjust="spacing" textLength="29" x="128" y="68.7842">age</text><text fill="#D9B8FF" font-family="sans-serif" font-size="14" lengthAdjust="spacing" textLength="66" x="157" y="68.7842">: duration</text><text fill="#D9B8FF" font-family="sans-serif" font-size="14" font-weight="bold" lengthAdjust="spacing" textLength="43" x="128" y="95.0811">atime</text><text fill="#D9B8FF" font-family="sans-serif" font-size="14" lengthAdjust="spacing" textLength="70" x="171" y="95.0811">: datetime</text><text fill="#D9B8FF" font-family="sans-serif" font-size="14" font-weight="bold" lengthAdjust="spacing" textLength="43" x="128" y="121.3779">ctime</text><text fill="#D9B8FF" font-family="sans-serif" font-size="14" lengthAdjust="spacing" textLength="70" x="171" y="121.3779">: datetime</text><text fill="#D9B8FF" font-family="sans-serif" font-size="14" font-weight="bold" lengthAdjust="spacing" textLength="14" x="128" y="147.6748">id</text><text fill="#D9B8FF" font-family="sans-serif" font-size="14" lengthAdjust="spacing" textLength="48" x="142" y="147.6748">: string</text><text fill="#D9B8FF" font-family="sans-serif" font-size="14" font-weight="bold" lengthAdjust="spacing" textLength="33" x="128" y="173.9717">kind</text><text fill="#D9B8FF" font-family="sans-serif" font-size="14" lengthAdjust="spacing" textLength="48" x="161" y="173.9717">: string</text><text fill="#D9B8FF" font-family="sans-serif" font-size="14" font-weight="bold" lengthAdjust="spacing" textLength="90" x="128" y="200.2686">last_access</text><text fill="#D9B8FF" font-family="sans-serif" font-size="14" lengthAdjust="spacing" textLength="66" x="218" y="200.2686">: duration</text><text fill="#D9B8FF" font-family="sans-serif" font-size="14" font-weight="bold" lengthAdjust="spacing" textLength="90" x="128" y="226.5654">last_update</text><text fill="#D9B8FF" font-family="sans-serif" font-size="14" lengthAdjust="spacing" textLength="66" x="218" y="226.5654">: duration</text><text fill="#D9B8FF" font-family="sans-serif" font-size="14" font-weight="bold" lengthAdjust="spacing" textLength="48" x="128" y="252.8623">mtime</text><text fill="#D9B8FF" font-family="sans-serif" font-size="14" lengthAdjust="spacing" textLength="70" x="176" y="252.8623">: datetime</text><text fill="#D9B8FF" font-family="sans-serif" font-size="14" font-weight="bold" lengthAdjust="spacing" textLength="43" x="128" y="279.1592">name</text><text fill="#D9B8FF" font-family="sans-serif" font-size="14" lengthAdjust="spacing" textLength="48" x="171" y="279.1592">: string</text><text fill="#D9B8FF" font-family="sans-serif" font-size="14" font-weight="bold" lengthAdjust="spacing" textLength="34" x="128" y="305.4561">tags</text><text fill="#D9B8FF" font-family="sans-serif" font-size="14" lengthAdjust="spacing" textLength="171" x="162" y="305.4561">: dictionary[string, string]</text></g><!--link azure_cosmos_db_restorable_account to azure_restorable_location_resource--><g id="link_azure_cosmos_db_restorable_account_azure_restorable_location_resource"><path codeLine="53" d="M230.5,865.93 C230.5,885.9 230.5,900.51 230.5,919.44 " fill="none" id="azure_cosmos_db_restorable_account-to-azure_restorable_location_resource" style="stroke:#FFAF37;stroke-width:2.0;"/><polygon fill="#FFAF37" points="230.5,925.44,234.5,916.44,230.5,920.44,226.5,916.44,230.5,925.44" style="stroke:#FFAF37;stroke-width:2.0;"/></g><!--reverse link microsoft_resource to azure_cosmos_db_restorable_account--><g id="link_microsoft_resource_azure_cosmos_db_restorable_account"><path codeLine="54" d="M230.5,557.52 C230.5,591.07 230.5,618.62 230.5,659.75 " fill="none" id="microsoft_resource-backto-azure_cosmos_db_restorable_account" style="stroke:#FFAF37;stroke-width:2.0;"/><polygon fill="none" points="230.5,539.52,224.5,557.52,236.5,557.52,230.5,539.52" style="stroke:#FFAF37;stroke-width:2.0;"/></g><!--reverse link resource to microsoft_resource--><g id="link_resource_microsoft_resource"><path codeLine="55" d="M230.5,336.06 C230.5,379.66 230.5,405.98 230.5,438.42 " fill="none" id="resource-backto-microsoft_resource" style="stroke:#FFAF37;stroke-width:2.0;"/><polygon fill="none" points="230.5,318.06,224.5,336.06,236.5,336.06,230.5,318.06" style="stroke:#FFAF37;stroke-width:2.0;"/></g><!--SRC=[dLHTQzim57tthp3qpIoGh6nfnXXqWR6zbB7khGnnBLqd8hPahgvRqct_VPAT1laZQTYRSy_H-RYHlTKAKwngtgSLLZcIIznEcne8glIMo3wjRMaflIeAAAwNG_2BDVmguGugJBzY-OYi9GmPFxTQxWmwbxwDeCyWTnkoZL6TF1COvo4q7B7M9JXtoqmwRnYZC6gLtnJ5a3aKlRfMY-Lx7D4iAQG3PJwVgyLgI7dLwcpl8-DUFsEwY9TsPnb7CKSMBUjioi28GewAlk0dCtu7fRJPfE-YsOyk4ncatln-2ye-1NO1fOjj72EXvNsDwr4hNDseOZb9_dQAdCYmkXIU6q8XhQki4oeNX8ujGLwY02dzCKv_9rbsU1R6byoo3zw0VCW0r5e4dzvG4W9hQmJhZgw0CJnxJ669fp1RAcyVPvWWHMXfPUlZ0gLhCe66cMr8uiElv6-lzZboM_j_YnpLHliYtFWvbCAp8GTtNBFGnZ4OYKAhwCHBu4fBiiuMt0-839kUVatsKJjluNyAByWu8TQJW4sNlg4sSfXCD98JirxGBFEthp_mNXpg-I_ImA55cbeTuaL8DU4pMg8ltIbg6Ou1xHywxCs14_xe2sxsRFRfWfkGJEp-uv_PR7R1ovCCJeobady0]--></g></svg>

<svg xmlns="http://www.w3.org/2000/svg" width="461" height="1085" viewBox="0 0 461 1085"><rect width="447" height="205.57" x="7" y="660.14" fill="#3D176E" rx="2.5" ry="2.5" style="stroke:#000d19;stroke-width:.5"/><circle cx="65.25" cy="680.034" r="11" fill="#ADD1B2" style="stroke:#181818;stroke-width:1"/><path d="M68.219 685.675q-.578.297-1.219.438-.64.156-1.344.156-2.5 0-3.828-1.64-1.312-1.657-1.312-4.782t1.312-4.781q1.328-1.657 3.828-1.657.703 0 1.344.157.656.156 1.219.453v2.719q-.625-.579-1.219-.844-.594-.281-1.219-.281-1.344 0-2.031 1.078-.687 1.062-.687 3.156t.687 3.172q.688 1.062 2.031 1.062.625 0 1.219-.265.594-.282 1.219-.86z"/><text x="90.75" y="685.92" fill="#D9B8FF" font-family="Helvetica" font-size="17" textLength="312">azure_cosmos_db_restorable_account</text><path d="M8 699.929h445" style="stroke:#000d19;stroke-width:.5"/><text x="18" y="721.924" fill="#D9B8FF" font-family="sans-serif" font-size="14" font-weight="bold" textLength="113">account_name</text><text x="131" y="721.924" fill="#D9B8FF" font-family="sans-serif" font-size="14" textLength="48">: string</text><text x="18" y="748.221" fill="#D9B8FF" font-family="sans-serif" font-size="14" font-weight="bold" textLength="65">api_type</text><text x="83" y="748.221" fill="#D9B8FF" font-family="sans-serif" font-size="14" textLength="48">: string</text><text x="18" y="774.518" fill="#D9B8FF" font-family="sans-serif" font-size="14" font-weight="bold" textLength="106">creation_time</text><text x="124" y="774.518" fill="#D9B8FF" font-family="sans-serif" font-size="14" textLength="70">: datetime</text><text x="18" y="800.815" fill="#D9B8FF" font-family="sans-serif" font-size="14" font-weight="bold" textLength="105">deletion_time</text><text x="123" y="800.815" fill="#D9B8FF" font-family="sans-serif" font-size="14" textLength="70">: datetime</text><text x="18" y="827.112" fill="#D9B8FF" font-family="sans-serif" font-size="14" font-weight="bold" textLength="179">oldest_restorable_time</text><text x="197" y="827.112" fill="#D9B8FF" font-family="sans-serif" font-size="14" textLength="70">: datetime</text><text x="18" y="853.409" fill="#D9B8FF" font-family="sans-serif" font-size="14" font-weight="bold" textLength="160">restorable_locations</text><text x="178" y="853.409" fill="#D9B8FF" font-family="sans-serif" font-size="14" textLength="265">: azure_restorable_location_resource[]</text><rect width="378" height="152.977" x="41.5" y="925.71" fill="#3D176E" rx="2.5" ry="2.5" style="stroke:#000d19;stroke-width:.5"/><circle cx="75.4" cy="945.605" r="11" fill="#ADD1B2" style="stroke:#181818;stroke-width:1"/><path d="M78.369 951.245q-.578.297-1.219.438-.64.156-1.344.156-2.5 0-3.828-1.64-1.312-1.657-1.312-4.782t1.312-4.781q1.328-1.656 3.828-1.656.703 0 1.344.156.656.156 1.219.453v2.719q-.625-.578-1.219-.844-.594-.281-1.219-.281-1.343 0-2.031 1.078-.687 1.062-.687 3.156t.687 3.172q.688 1.062 2.031 1.062.625 0 1.219-.265.594-.281 1.219-.86z"/><text x="98.6" y="951.49" fill="#D9B8FF" font-family="Helvetica" font-size="17" textLength="294">azure_restorable_location_resource</text><path d="M42.5 965.499h376" style="stroke:#000d19;stroke-width:.5"/><text x="52.5" y="987.494" fill="#D9B8FF" font-family="sans-serif" font-size="14" font-weight="bold" textLength="106">creation_time</text><text x="158.5" y="987.494" fill="#D9B8FF" font-family="sans-serif" font-size="14" textLength="70">: datetime</text><text x="52.5" y="1013.791" fill="#D9B8FF" font-family="sans-serif" font-size="14" font-weight="bold" textLength="105">deletion_time</text><text x="157.5" y="1013.791" fill="#D9B8FF" font-family="sans-serif" font-size="14" textLength="70">: datetime</text><text x="52.5" y="1040.088" fill="#D9B8FF" font-family="sans-serif" font-size="14" font-weight="bold" textLength="112">location_name</text><text x="164.5" y="1040.088" fill="#D9B8FF" font-family="sans-serif" font-size="14" textLength="48">: string</text><text x="52.5" y="1066.385" fill="#D9B8FF" font-family="sans-serif" font-size="14" font-weight="bold" textLength="308">regional_database_account_instance_id</text><text x="360.5" y="1066.385" fill="#D9B8FF" font-family="sans-serif" font-size="14" textLength="48">: string</text><rect width="214" height="100.383" x="123.5" y="438.76" fill="#3D176E" rx="2.5" ry="2.5" style="stroke:#000d19;stroke-width:.5"/><circle cx="144.8" cy="458.654" r="11" fill="#ADD1B2" style="stroke:#181818;stroke-width:1"/><path d="M147.769 464.295q-.578.297-1.219.438-.64.156-1.344.156-2.5 0-3.828-1.64-1.312-1.657-1.312-4.782t1.312-4.781q1.328-1.656 3.828-1.656.703 0 1.344.156.656.156 1.219.453v2.719q-.625-.579-1.219-.844-.594-.281-1.219-.281-1.343 0-2.031 1.078-.687 1.062-.687 3.156t.687 3.172q.688 1.062 2.031 1.062.625 0 1.219-.265.594-.281 1.219-.86z"/><text x="165.2" y="464.54" fill="#D9B8FF" font-family="Helvetica" font-size="17" textLength="158">microsoft_resource</text><path d="M124.5 478.549h212" style="stroke:#000d19;stroke-width:.5"/><text x="134.5" y="500.544" fill="#D9B8FF" font-family="sans-serif" font-size="14" font-weight="bold" textLength="35">etag</text><text x="169.5" y="500.544" fill="#D9B8FF" font-family="sans-serif" font-size="14" textLength="48">: string</text><text x="134.5" y="526.841" fill="#D9B8FF" font-family="sans-serif" font-size="14" font-weight="bold" textLength="144">provisioning_state</text><text x="278.5" y="526.841" fill="#D9B8FF" font-family="sans-serif" font-size="14" textLength="48">: string</text><rect width="227" height="310.758" x="117" y="7" fill="#3D176E" rx="2.5" ry="2.5" style="stroke:#000d19;stroke-width:.5"/><circle cx="185.75" cy="26.895" r="11" fill="#ADD1B2" style="stroke:#181818;stroke-width:1"/><path d="M188.719 32.535q-.578.297-1.219.438-.64.156-1.344.156-2.5 0-3.828-1.64-1.312-1.657-1.312-4.782t1.312-4.781q1.328-1.656 3.828-1.656.703 0 1.344.156.656.156 1.219.453v2.719q-.625-.578-1.219-.844-.594-.281-1.219-.281-1.344 0-2.031 1.078-.687 1.062-.687 3.156t.687 3.172q.688 1.062 2.031 1.062.625 0 1.219-.265.594-.281 1.219-.86z"/><text x="211.25" y="32.78" fill="#D9B8FF" font-family="Helvetica" font-size="17" textLength="71">resource</text><path d="M118 46.789h225" style="stroke:#000d19;stroke-width:.5"/><text x="128" y="68.784" fill="#D9B8FF" font-family="sans-serif" font-size="14" font-weight="bold" textLength="29">age</text><text x="157" y="68.784" fill="#D9B8FF" font-family="sans-serif" font-size="14" textLength="66">: duration</text><text x="128" y="95.081" fill="#D9B8FF" font-family="sans-serif" font-size="14" font-weight="bold" textLength="43">atime</text><text x="171" y="95.081" fill="#D9B8FF" font-family="sans-serif" font-size="14" textLength="70">: datetime</text><text x="128" y="121.378" fill="#D9B8FF" font-family="sans-serif" font-size="14" font-weight="bold" textLength="43">ctime</text><text x="171" y="121.378" fill="#D9B8FF" font-family="sans-serif" font-size="14" textLength="70">: datetime</text><text x="128" y="147.675" fill="#D9B8FF" font-family="sans-serif" font-size="14" font-weight="bold" textLength="14">id</text><text x="142" y="147.675" fill="#D9B8FF" font-family="sans-serif" font-size="14" textLength="48">: string</text><text x="128" y="173.972" fill="#D9B8FF" font-family="sans-serif" font-size="14" font-weight="bold" textLength="33">kind</text><text x="161" y="173.972" fill="#D9B8FF" font-family="sans-serif" font-size="14" textLength="48">: string</text><text x="128" y="200.269" fill="#D9B8FF" font-family="sans-serif" font-size="14" font-weight="bold" textLength="90">last_access</text><text x="218" y="200.269" fill="#D9B8FF" font-family="sans-serif" font-size="14" textLength="66">: duration</text><text x="128" y="226.565" fill="#D9B8FF" font-family="sans-serif" font-size="14" font-weight="bold" textLength="90">last_update</text><text x="218" y="226.565" fill="#D9B8FF" font-family="sans-serif" font-size="14" textLength="66">: duration</text><text x="128" y="252.862" fill="#D9B8FF" font-family="sans-serif" font-size="14" font-weight="bold" textLength="48">mtime</text><text x="176" y="252.862" fill="#D9B8FF" font-family="sans-serif" font-size="14" textLength="70">: datetime</text><text x="128" y="279.159" fill="#D9B8FF" font-family="sans-serif" font-size="14" font-weight="bold" textLength="43">name</text><text x="171" y="279.159" fill="#D9B8FF" font-family="sans-serif" font-size="14" textLength="48">: string</text><text x="128" y="305.456" fill="#D9B8FF" font-family="sans-serif" font-size="14" font-weight="bold" textLength="34">tags</text><text x="162" y="305.456" fill="#D9B8FF" font-family="sans-serif" font-size="14" textLength="171">: dictionary[string, string]</text><path fill="none" d="M230.5 865.93v53.51" style="stroke:#ffaf37;stroke-width:2"/><path fill="#FFAF37" d="m230.5 925.44 4-9-4 4-4-4z" style="stroke:#ffaf37;stroke-width:2"/><path fill="none" d="M230.5 557.52v102.23m0-120.23-6 18h12zm0-203.46v102.36m0-120.36-6 18h12z" style="stroke:#ffaf37;stroke-width:2"/></svg>
